X: 125
T: Texas Gales
C:Traditional, Doc Watson's mandolin rendition
B: canberra pickers and fiddlers
B: old time tunes update
B: tunes
M:2/4
L:1/8
Q: 1/4=100
K:C
V:1 
G2A2B2 |: "C"cA[cE]c ecdA | cdcA GGAG, | cAcc AcdA | cdcA GGA[[G,D] |
cA[cEG,]c [DA]cdc | [Ec]d[Ec][DAe] G2A^A | "G"BAG[GB] [G2A][G2B] | "C"[E2c][Ec][Ec] [E2c][DA][^DB]||
"C"[Ec][DA]cc AcdA | cdcA GGA[G,D] | [Ec]Acc Acdc | cdcA G2A[^DB] |
"C"zg2ag2 ed |cAcd [c2e2] cc | "F"egae a2g2 | ec2 dc2 e^f |
"C"gega g2 ed |cAcd c2A^A| "G"BAGB [D2A2][G2B2] | "C"[E2c2][Ec][Ec][E2c2] G,B,||
"C"CG,CD ECDE |"F"FAFA F2 FA | "G"BAGe a2 ge | "C"cdea "G"g2 G,D |
"C"CG,CD ECDE | "F"FAFAF2 FA | "G"[DB]AGB [GA][GB] | [1"C"[E2c2][Ece][Ece][E2c2e2][DA][^DB]:|[2 "C"[E2c2][Ece][Ece][E2c2e2] |]
Ec A[Ec]c Acdc | dedA G2[DA]^A | "G"BA[GB]B A2[G2B] | "C"[E2c][Ece][Ece] [E2c2e2] [Ece][Ece] ||
% abcbook-tune_id 67a7d9ec642f6ea6cea7218b
% abcbook-tune_composer_id 
% abcbook-link-0 https://www.youtube.com/watch?v=-QRC5zk-5Sg
% abcbook-link-title-0 Texas Gales
% abcbook-boost 0
% abcbook-difficulty 0
% abcbook-tags old time tunes
% abcbook-tablature 
% abcbook-transpose 
% abcbook-tuning GDAE
% abcbook-lastupdated 1739243073348
% abcbook-src-url 
% abcbook-soundfonts 
% abcbook-repeats 1


